X:119
T:The Piper Joe Shannon 
R:double jig
C: 2005, 2010 L.E. McCullough 
M:6/8
L:1/8
K:Dmix
A2G|:FAA AFA|dAF FED|FAA GBB|dBG B2A|
FAA AFA|dAF FED|BGB c2A|1BAG A2G:|2 BAG A2g|]
|:f2e ede|fAf edB|AFA BGB|dBG B2A|
f2e ede|fAf ABc|BGB c2A|1 BAG A2g:|2 (3Bcd G A2G|]

